shader ripple(
    float frequency = 40.0,          
    float amplitude = 0.8,         
    output float disp = 0.0
)
{
    float theta = atan2(P[0], P[1]);      
    disp = sin(theta * frequency) * amplitude;
}



